src/images/svg/symbols/maker.svg

<svg width="32" height="32" viewBox="0 0 32 32" fill="none" xmlns="http://www.w3.org/2000/svg">
<path d="M0 16C0 7.16344 7.16344 0 16 0C24.8366 0 32 7.16344 32 16C32 24.8366 24.8366 32 16 32C7.16344 32 0 24.8366 0 16Z" fill="url(#paint0_linear_9924_57802)"/>
<path d="M9.24691 19.208V12.7674L14.1306 16.4433V19.208H15.377V16.1838C15.3768 16.0714 15.3505 15.9606 15.3003 15.8601C15.25 15.7596 15.1771 15.6721 15.0874 15.6045L9.16481 11.1449C9.05649 11.0644 8.92797 11.0156 8.79355 11.0038C8.65913 10.992 8.52406 11.0177 8.40337 11.078C8.28268 11.1384 8.18108 11.231 8.10987 11.3457C8.03866 11.4603 8.00063 11.5924 8 11.7274V19.208H9.24691ZM22.7531 19.208V12.7674L17.8694 16.4433V19.208H16.623V16.1838C16.6232 16.0714 16.6495 15.9606 16.6997 15.8601C16.75 15.7596 16.8229 15.6721 16.9126 15.6045L22.8352 11.1467C22.9434 11.0663 23.0717 11.0175 23.206 11.0056C23.3403 10.9938 23.4752 11.0193 23.5958 11.0794C23.7165 11.1396 23.8181 11.2319 23.8894 11.3463C23.9608 11.4607 23.999 11.5926 24 11.7274V19.208H22.7531Z" fill="white"/>
<defs>
<linearGradient id="paint0_linear_9924_57802" x1="16" y1="0" x2="16" y2="32" gradientUnits="userSpaceOnUse">
<stop stop-color="#4FA89B"/>
<stop offset="1" stop-color="#6ACEBB"/>
</linearGradient>
</defs>
</svg>

<svg width="32" height="32" fill="none" xmlns="http://www.w3.org/2000/svg"><path d="M0 16C0 7.163 7.163 0 16 0s16 7.163 16 16-7.163 16-16 16S0 24.837 0 16Z" fill="url(#a)"/><path d="M9.247 19.208v-6.44l4.884 3.675v2.765h1.246v-3.024a.727.727 0 0 0-.29-.58l-5.922-4.46A.73.73 0 0 0 8 11.728v7.481h1.247Zm13.506 0v-6.44l-4.884 3.675v2.765h-1.246v-3.024a.727.727 0 0 1 .29-.58l5.922-4.457a.73.73 0 0 1 1.165.58v7.481h-1.247Z" fill="#fff"/><defs><linearGradient id="a" x1="16" y1="0" x2="16" y2="32" gradientUnits="userSpaceOnUse"><stop stop-color="#4FA89B"/><stop offset="1" stop-color="#6ACEBB"/></linearGradient></defs></svg>
